X: 25
T:Cripple Creek
M:4/4
L:1/8
Q:90
C:American
R:Reel
K:A
ef|:"A"[A2a2]aa aecd|"D"efed "A"e2 AB|"A"cBAc BAFE|"E"EFAB "A"A2 ef|!
"A"[A2a2]aa aecd|"D"efed "A"e2 AB|"A"cBAc BAFE|"E"EFAB "A"A4:|!
"A"[Be][ce][ce][ce] [ce][Be][Ae]F|[ce][Be][A2e2] [F2A2][E2A2]|[Be][ce][c
e][ce] [ce][Be][Ae]F|"E"EFAB "A"A4|!
"A"[Be][ce][ce][ce] [ce][Be][Ae]F|[ce][Be][A2e2] [F2A2][E2A2]|[Be][ce][c
e][ce] [ce][Be][Ae]F|"E"EFAB "A"A4|]
